icons/svg/tag_12.svg

<?xml version="1.0" encoding="UTF-8"?>
<svg width="12px" height="12px" viewBox="0 0 12 12" version="1.1" xmlns="http://www.w3.org/2000/svg" xmlns:xlink="http://www.w3.org/1999/xlink">
    <!-- Generator: Sketch 57.1 (83088) - https://sketch.com -->
    <title>tag_12</title>
    <desc>Created with Sketch.</desc>
    <g id="Icons-Webex" stroke="none" stroke-width="1" fill="none" fill-rule="evenodd">
        <g id="format/tag_12" fill="#171B1F">
            <g id="fill">
                <path d="M7.7313,0.1922 C8.8593,-0.2308 10.2173,0.0602 11.0743,0.9142 C11.9483,1.7882 12.2323,3.0992 11.7983,4.2532 L11.7983,4.2532 L11.0833,6.1562 C10.9003,6.6382 10.6263,7.0632 10.2693,7.4222 L10.2693,7.4222 L6.2473,11.4552 C5.8923,11.8072 5.4183,11.9842 4.9433,11.9842 C4.4683,11.9842 3.9953,11.8082 3.6423,11.4562 L3.6423,11.4562 L0.5393,8.3572 C0.1913,8.0092 0.0003,7.5472 0.0003,7.0562 C0.0003,6.5642 0.1913,6.1022 0.5393,5.7552 L0.5393,5.7552 L4.5553,1.7272 C4.9173,1.3652 5.3593,1.0802 5.8343,0.9032 L5.8343,0.9032 Z M8.8383,0.9922 C8.5783,0.9922 8.3243,1.0382 8.0833,1.1292 L8.0833,1.1292 L6.1843,1.8392 C5.8413,1.9672 5.5243,2.1722 5.2633,2.4332 L5.2633,2.4332 L1.2473,6.4622 C1.0873,6.6212 1.0003,6.8322 1.0003,7.0562 C1.0003,7.2802 1.0873,7.4902 1.2463,7.6492 L1.2463,7.6492 L4.3493,10.7482 C4.6603,11.0592 5.2273,11.0592 5.5403,10.7482 L5.5403,10.7482 L9.5603,6.7152 C9.8183,6.4582 10.0153,6.1512 10.1473,5.8032 L10.1473,5.8032 L10.8623,3.9012 C11.1583,3.1132 10.9643,2.2182 10.3673,1.6222 C9.9663,1.2212 9.4083,0.9922 8.8383,0.9922 Z M8.9453,2.3382 C9.1403,2.1432 9.4573,2.1432 9.6523,2.3382 C9.8473,2.5332 9.8473,2.8502 9.6523,3.0452 L9.6523,3.0452 L8.5523,4.1452 C8.4553,4.2422 8.3273,4.2912 8.1993,4.2912 C8.0713,4.2912 7.9433,4.2422 7.8453,4.1452 C7.6503,3.9492 7.6503,3.6332 7.8453,3.4382 L7.8453,3.4382 Z"></path>
            </g>
        </g>
    </g>
</svg>

<svg width="12" height="12" xmlns="http://www.w3.org/2000/svg"><path d="M7.731.192C8.86-.23 10.217.06 11.074.914a3.16 3.16 0 01.724 3.34l-.715 1.902a3.587 3.587 0 01-.814 1.266l-4.022 4.033a1.847 1.847 0 01-1.304.53c-.475 0-.948-.177-1.3-.529L.538 8.357A1.828 1.828 0 010 7.057c0-.493.191-.955.54-1.302l4.015-4.028a3.601 3.601 0 011.28-.824zm1.107.8c-.26 0-.514.046-.755.137l-1.899.71c-.343.128-.66.333-.92.594l-4.017 4.03A.831.831 0 001 7.055c0 .224.087.434.246.593l3.103 3.1c.311.31.878.31 1.191 0l4.02-4.034c.258-.257.455-.564.587-.912l.715-1.902a2.156 2.156 0 00-.495-2.279 2.176 2.176 0 00-1.529-.63zm.107 1.346a.5.5 0 01.707.707l-1.1 1.1a.498.498 0 01-.707 0 .5.5 0 010-.707z" fill="#171B1F" fill-rule="evenodd"/></svg>
